X:35
T:Bouncing Fiddle Bo
R:reel
C:Bruce Osborne - Sept 2002
Z:abc by bosborne@kos.net
M:2/4
L:1/8
K:Dmaj
F/G/|A/F/D/F/ A/F/D/F/|E/D/C/E/ DF/G/|A/F/D/F/ A/F/D/F/|E/F/E/D/ EF/G/|\
A/F/D/F/ A/F/D/F/|E/D/C/E/ DF/G/|A/F/D/F/ E/D/C/E/|D/F/E/C/ D:|
|:D/E/|F/F/A/F/ F/B/F/F/|A/F/F/A/ BF|G/G/B/G/ G/c/G/G/|B/G/G/B/ cB|\
F/F/A/F/ F/B/F/F/|A/F/F/A/ BF|1 E/E/A/E/ E/A/E/E/|A/E/E/A/ A:|2E/E/A/E/ E/A/E/E/|D/F/E/C/ D||
